src/assets/images/pages/docs/tutorials-icon.svg

<svg xmlns="http://www.w3.org/2000/svg" xmlns:xlink="http://www.w3.org/1999/xlink" width="73" height="72" viewBox="0 0 73 72"><defs><path id="a" d="M0 0h72v72H0z"/></defs><g fill="none" fill-rule="evenodd"><mask id="b" fill="#fff"><use xlink:href="#a"/></mask><path fill="#F15953" d="M36 0C16.118 0 0 16.118 0 36s16.117 36 36 36 36-16.118 36-36S55.883 0 36 0m0 2c18.748 0 34 15.252 34 34 0 18.748-15.252 34-34 34C17.254 70 2 54.748 2 36 2 17.252 17.254 2 36 2" mask="url(#b)"/><path fill="#F15953" d="M62.786 60.05h-20.15c-2.63 0-4.76 2.14-4.76 4.77v7.13c9.889-.51 18.71-5 24.91-11.9m-4.93 2a33.65 33.65 0 0 1-17.98 7.73v-4.96a2.768 2.768 0 0 1 2.76-2.77h15.22"/><path stroke="#F15953" stroke-width="2" d="M56 61.153L55.997 20H16.002v44m8-36h19.997m-19.997 4h20m-20 4h16m-16 4h20m-20 4h15.997m-15.997 4h19.997m-19.997 4h20m-20 4h15.997"/><path fill="#FFF" d="M55.909 55.045c-4.973 0-9.02-4.046-9.02-9.02V42.02c0-4.973 4.047-9.02 9.02-9.02s9.019 4.047 9.019 9.02v4.007c0 4.973-4.046 9.019-9.02 9.019"/><path fill="#F15953" d="M55.909 32c-5.533 0-10.02 4.485-10.02 10.019v4.007c0 5.533 4.487 10.019 10.02 10.019 5.533 0 10.018-4.486 10.018-10.019v-4.007C65.927 36.485 61.442 32 55.909 32m0 2c4.42 0 8.018 3.597 8.018 8.019v4.007c0 4.422-3.597 8.019-8.018 8.019-4.422 0-8.02-3.597-8.02-8.019v-4.007c0-4.422 3.598-8.019 8.02-8.019"/></g></svg>

<svg xmlns="http://www.w3.org/2000/svg" xmlns:xlink="http://www.w3.org/1999/xlink" width="73" height="72" viewBox="0 0 73 72">
    <defs>
        <path id="a" d="M0 0h72v72H0z"/>
    </defs>
    <g fill="none" fill-rule="evenodd">
        <mask id="b" fill="#fff">
            <use xlink:href="#a"/>
        </mask>
        <path fill="#F15953" d="M36 0C16.118 0 0 16.118 0 36s16.117 36 36 36 36-16.118 36-36S55.883 0 36 0m0 2c18.748 0 34 15.252 34 34 0 18.748-15.252 34-34 34C17.254 70 2 54.748 2 36 2 17.252 17.254 2 36 2" mask="url(#b)"/>
        <path fill="#F15953" d="M62.786 60.05h-20.15c-2.63 0-4.76 2.14-4.76 4.77v7.13c9.889-.51 18.71-5 24.91-11.9m-4.93 2a33.65 33.65 0 0 1-17.98 7.73v-4.96a2.768 2.768 0 0 1 2.76-2.77h15.22"/>
        <path stroke="#F15953" stroke-width="2" d="M56 61.153L55.997 20H16.002V64M24.002 28h19.997M24.002 32h20M24.002 36h16M24.002 40h20M24.002 44h15.997M24.002 48h19.997M24.002 52h20M24.002 56h15.997"/>
        <path fill="#FFF" d="M55.909 55.045c-4.973 0-9.02-4.046-9.02-9.02V42.02c0-4.973 4.047-9.02 9.02-9.02s9.019 4.047 9.019 9.02v4.007c0 4.973-4.046 9.019-9.02 9.019"/>
        <path fill="#F15953" d="M55.909 32c-5.533 0-10.02 4.485-10.02 10.019v4.007c0 5.533 4.487 10.019 10.02 10.019 5.533 0 10.018-4.486 10.018-10.019v-4.007C65.927 36.485 61.442 32 55.909 32m0 2c4.42 0 8.018 3.597 8.018 8.019v4.007c0 4.422-3.597 8.019-8.018 8.019-4.422 0-8.02-3.597-8.02-8.019v-4.007c0-4.422 3.598-8.019 8.02-8.019"/>
    </g>
</svg>
